X: 1
M: 3/4
L: 1/8
K: D
|: Ad \
| "D"f3 gfe | d2 D3 F | Ad cd ed | "A7"c4 Ac \
| e3 fec | B2 A4 | a^g ab a=g | "D"f4 Ad |
| "D"f3 gfe | d2 D3 F | Ad cd ed | "G"B4 ef \
| g2 f2 e2 | "A7"a2 a^g a2 | ba g2 c2 | "D"Hd4 :| [K:A]
|: ef \
| "A"e2 ag af | e2 A3 B | c2 B2 A2 | E2 B2 c2 \
| "E7"e4 dc | B2 c2 d2 | e2 a2 ~g2 | "A"e4 ef |
| "A"e2 ag af | e2 A3 B | c2 B2 A2 | E2 B2 c2 \
| "E7"dc Bc de | f2 fe fg | "A"a3 bag | "da Capo"a4 |]
